X:1
T:River Flows in You
T: River Flows In You By: Yiruma 
C:Yiruma Arr. Just Piano
%%score { 1 | 2 }
L:1/8
Q:1/4=125
M:4/4
K:A
V:1 treble nm="Piano" snm="Pno."
V:2 bass 
V:1
"^Beautifully" z4 z2!p!!ped! Ac |!<(! a2 g2 a2[Q:1/4=110]"^rit." g2!<)! | %2
!>(! a2 e2[Q:1/4=95] a2 d2- |[M:2/4] !fermata!d!>)! z!ped-up![Q:1/4=125]!ped! Ac | %4
[M:4/4]!<(! a2 g2 a2"^rit." g2!<)! |[Q:1/4=110]!>(! a2 e2[Q:1/4=90] a2 d2- | %6
[M:2/4] !fermata!d!>)! z!ped-up![Q:1/4=130]!<(!!ped! Ac!<)! |[M:4/4]!mp! a2!<(! g a2- aga- | %8
 aAe a2 AdA!<)! |!>(!{/B} c2 d2"^rit."[Q:1/4=110] e2 c2 | %10
 [GB]6!ped-up!!>)!!p!"^A Tempo"!ped! AG[Q:1/4=125] | A2- [EA-]2 AEAB | c4- c z cd | %13
 [ce]4- [ce] z d[Q:1/4=110]c | B6[Q:1/4=130]!<(!!ped! Ac!ped-up!!<)! |!mp! a2!<(! g a2- aga- | %16
 aAe a2 AdA!<)! |{/B} c2 d2[Q:1/4=115] e2 c'2 |!mf! b4[Q:1/4=130]{/bc'} b2 a!ped-up!!ped!g | %19
!>(! a4- aEAB | c4- c z[Q:1/4=125] cd |!mp! e4- e z[Q:1/4=120]!<(! dc!>)! | %22
 B4 a!ped-up!!ped!bag!<)![Q:1/4=135] |!f! aAeA abag | aAeA abag | abc'd' e'c'ba | %26
 g4 a!ped-up!!ped!bag | aAeA abag | aAeA abag | abc'd' e'c'ba |{/a} g4 a!ped-up!!ped!a/b/ ag | %31
 aAeA aa/b/ ag | aAeA aa/b/ ag | abc'd' e'c'ba | g4 a!ped-up!!ped!a/b/ ag |!>(! aAeA aa/b/ ag | %36
 aAeA aa/b/ ag!>)! |!mf!"^rit." a[Q:1/4=130]!>(!bc'd'[Q:1/4=125] e'{/c'd'}c'b[Q:1/4=120]a!>)! | %38
 g6[Q:1/4=130]!ped! A!ped-up!c[Q:1/4=110] |!mp! a2!<(! g a2- aga- | aAe a2 AdA!<)! | %41
!>(!{/B} [Ac]2 d2 e2 c2 | [GB]6!>)!!p!!ped-up!!ped! AG | A2- [EA-]2 AEAB | [Ac]4- [Ac] z cd | %45
 [ce]4- [ce] z!<(! dc |{/c} B6!<)!!mp! Ac | a2 g a2- aga- | aAe a2 AdA |{/B} c2 d2 e2 [cc']2 | %50
!mf! [Bb]4{/bc'} b2 a!ped-up!!ped!g | a4- aEAB | cEAB cEcd | eEcd eEdc | %54
 BEdc[Q:1/4=135] [Ba]!ped-up!!ped!bag |!f! aAeA abag | aAeA abag | abc'd' e'c'ba | %58
 g4 a!ped-up!!ped!bag | aAeA abag | aAeA abag | abc'd' e'c'{/bc'}ba | g4 a!ped-up!!ped!a/b/ ag | %63
 aAeA aa/b/ ag | aAeA aa/b/ ag | abc'd' e'c'{/bc'}ba | g4 a!ped-up!!ped!a/b/ ag | %67
!>(! aAeA aa/b/ ag | aAeA aa/b/ ag!>)! | %69
!mf!"^rit." a[Q:1/4=120]!>(!bc'd'[Q:1/4=110] e'{/c'd'}c'b{/ab}a!>)! | %70
 g6!ped-up!!p![Q:1/4=125]!ped! Ac | a2 g2 a2"^rit."[Q:1/4=115] g2 | %72
!>(! a2[Q:1/4=105] e2[Q:1/4=90] a2 d2- |[M:2/4] !fermata!d!>)! z[Q:1/4=125]!pp!!ped-up!!ped! Ac | %74
[M:4/4] a2 g2 a2"^rit."[Q:1/4=110] g2 |!>(! a2[Q:1/4=90] e2[Q:1/4=80] a2 [ABd]2- | %76
 !fermata![ABd]8!>)! |] %77
V:2
 z8 |!p! F,2 C2 F4 | D,2 A,2 E4- |[M:2/4] E z z2 |[M:4/4] F,2 C2 F4 | D,2 A,2 E4- |[M:2/4] E z2 z | %7
[M:4/4]!mp! F,2 C2 GA F,2 | D,2 A,2 E2 D,2 | A,,2 E,2 C4 | E,2 B,2 E4 |!p! F,2 C2 F4 | %12
 D,2 A,2 E2 D,2 | A,,2 E,2 C4 | E,2 B,2 E4 |!mp! F,2 C2 GA F,2 | D,2 A,2 E2 D,2 | A,,2 E,2 C4 | %18
 E,2 B,2 E2 E,2 | F,2 C2 F4 | D,2 A,2 E2 D,2 | A,,2 E,2 C4 | E,2 B,2 E4 |!f! F,2 C2 F2 F,2 | %24
 D,2 A,2 E2 D,2 | A,,2 E,2 C2 A,,2 | E,2 B,2 E2 E,2 | F,2 C2 F2 F,2 | D,2 A,2 E2 D,2 | %29
 A,,2 E,2 C2 A,,2 | E,2 B,2 E4 | F,2 C2 F2 F,2 | D,2 A,2 E2 D,2 | A,,2 E,2 C2 A,,2 | %34
 E,2 B,2 E2 E,2 | F,2 C2 F2 F,2 | D,2 A,2 E2 D,2 | A,,2 E,2 C2 A,,2 | %38
!>(! E,2 B,2!>)! !fermata!E2- E2 |!mp! F,2 C2 GA F,2 | D,2 A,2 E2 D,2 | A,,2 E,2 C4 | E,2 B,2 E4 | %43
!p! F,2 C2 F4 | D,2 A,2 E2 D,2 | A,,2 E,2 C4 | E,2 B,2 E4 | F,2 C2 GA F,2 | D,2 A,2 E2 D,2 | %49
 A,,2 E,2 C4 | E,2 B,2 E2 E,2 | F,2 C2 F4 | D,2 A,2 E2 D,2 | A,,2 E,2 C4 | E,2 B,2 E4 | %55
!f! F,2 C2 F2 F,2 | D,2 A,2 E2 D,2 | A,,2 E,2 C2 A,,2 | E,2 B,2 E2 E,2 | F,2 C2 F2 F,2 | %60
 D,2 A,2 E2 D,2 | A,,2 E,2 C2 A,,2 | E,2 B,2 E2 E,2 | F,2 C2 F2 F,2 | D,2 A,2 E2 D,2 | %65
 A,,2 E,2 C2 A,,2 | E,2 B,2 E2 E,2 | F,2 C2 F2 F,2 | D,2 A,2 E2 D,2 | A,,2 E,2 C2 A,,2 | %70
!>(! E2 B,2!>)! !fermata!E,2- E,2 |!p! F,2 C2 F4 | D,2 A,2 E4- |[M:2/4] E z2 z |[M:4/4] F,2 C2 F4 | %75
 D,2 A,2 E4- | E8 |] %77

